usr/share/icons/biglinux-icons-material/16/actions/dialog-tile-clones.svg

<svg xmlns="http://www.w3.org/2000/svg" viewBox="0 0 16 16"><path d="M2 2v5h5V2H2Zm7 0v5h5V2H9ZM3 3h3v3H3V3Zm7 0h3v3h-3V3zM2 9v5h5V9H2Zm1 1h3v3H3v-3z" style="fill:currentColor;fill-opacity:1;stroke:none;color:#dedede"/><path d="M11.5 8A1.5 1.5 0 0 0 10 9.5V11H9v3h5v-3h-1V9.5A1.5 1.5 0 0 0 11.5 8m0 1a.5.5 0 0 1 .5.5V11h-1V9.5a.5.5 0 0 1 .5-.5" style="fill:currentColor;fill-opacity:1;stroke:none;color:#3daee9"/></svg>

<svg xmlns="http://www.w3.org/2000/svg" viewBox="0 0 16 16">
  <defs id="defs3051">
    <style type="text/css" id="current-color-scheme">
      .ColorScheme-Text {
        color:#dedede;
      }
      .ColorScheme-Highlight {
        color:#3daee9;
      }
      </style>
  </defs>
  <path 
        style="fill:currentColor;fill-opacity:1;stroke:none"
        d="M 2,2 2,7 7,7 7,2 2,2 Z M 9,2 9,7 14,7 14,2 9,2 Z M 3,3 6,3 6,6 3,6 3,3 Z m 7,0 3,0 0,3 -3,0 0,-3 z M 2,9 2,14 7,14 7,9 2,9 Z m 1,1 3,0 0,3 -3,0 0,-3 z"
        class="ColorScheme-Text"
        />
  <path 
        style="fill:currentColor;fill-opacity:1;stroke:none"
        d="M 11.5,8 A 1.5,1.5 0 0 0 10,9.5 l 0,1.5 -1,0 0,3 5,0 0,-3 -1,0 0,-1.5 A 1.5,1.5 0 0 0 11.5,8 m 0,1 A 0.5,0.5 0 0 1 12,9.5 l 0,1.5 -1,0 0,-1.5 A 0.5,0.5 0 0 1 11.5,9"
        class="ColorScheme-Highlight"
        />
</svg>
